X:1
T:Bilbao, 11.10.11.10
T:Bilbao, 11.10.11.10
T:George Coles Stebbins, 1895
T:Public Domain Courtesy of the Cyber Hymnal™
C:George Coles Stebbins, 1895
Z:Public Domain
Z:Courtesy of the Cyber Hymnal™
%%score ( 1 2 ) ( 3 4 )
L:1/8
Q:1/4=125
M:4/4
K:Bb
V:1 treble 
V:2 treble 
V:3 bass 
V:4 bass 
V:1
 [DF]4 [B,D]2 [CE]2 | [^CG]4 [DF]4 | [EA]2 [EB]2 [Ec]2 [EA]2 | [DB]4 [DF]4 | [EG]4 [B,E]2 [EG]2 | %5
 F4 [FG]4 | [FA]2 [FB]2 [FA]2 [=EG]2 | F8 | [DF]4 [B,D]2 [CE]2 | [^CG]4 [DF]4 | %10
 [Fd]2 [Fc]2 [FB]2 [^FA]2 | [Gc]4 [EG]4 | [^CB]4 [CA]2 [CG]2 | [DF]4 [DB]4 | %14
 [EB]2 [EA]2 [EG]2 [EA]2 | [DB]8 |] %16
V:2
 x8 | x8 | x8 | x8 | x8 | F4 x4 | x8 | (F4 D2 E2) | x8 | x8 | x8 | x8 | x8 | x8 | x8 | x8 |] %16
V:3
 [B,,B,]4 [B,,F,]2 [B,,F,]2 | [B,,=E,]4 [B,,F,]4 | F,2 [F,G,]2 [F,A,]2 F,2 | [B,,F,]4 [B,,B,]4 | %4
 [E,B,]4 [E,G,]2 [E,B,]2 | [D,B,]4 [_D,=B,]4 | [C,C]2 [C,D]2 [C,C]2 [C,B,]2 | (A,4 B,2 C2) | %8
 [B,,B,]4 [B,,F,]2 [B,,F,]2 | [B,,=E,]4 [B,,F,]4 | [B,,B,]2 [C,A,]2 [D,B,]2 [D,B,]2 | %11
 [E,B,]4 [E,B,]4 | [=E,G,]4 [E,A,]2 [E,B,]2 | [F,B,]4 [G,B,]4 | [F,C]2 [F,C]2 [F,B,]2 F,2 | %15
 [B,,F,]8 |] %16
V:4
 x8 | x8 | F,2 x2 F,2 x2 | x8 | x8 | x8 | x8 | F,8 | x8 | x8 | x8 | x8 | x8 | x8 | x6 F,2 | x8 |] %16

